app/_assets/images/ribbon-soon.svg

<svg height="49" preserveAspectRatio="xMidYMid" viewBox="0 0 49 49" width="49" xmlns="http://www.w3.org/2000/svg"><g fill-rule="evenodd"><path d="m24 0s25 25 25 25v24s-49-49-49-49z" fill="#bfbfbf"/><path d="m43.116 26.369s-4.749 4.749-4.749 4.749-1.15-1.15-1.15-1.15.815-5.126.815-5.126-2.971 2.971-2.971 2.971-1.116-1.116-1.116-1.116 4.75-4.749 4.75-4.749 1.2 1.2 1.2 1.2-.77 4.98-.77 4.98 2.875-2.875 2.875-2.875 1.116 1.116 1.116 1.116zm-12.667-2.962c-1.479-1.479-1.44-3.547-.015-4.971 1.433-1.434 3.492-1.464 4.971.015 1.471 1.471 1.449 3.539.016 4.972-1.425 1.425-3.501 1.455-4.972-.016zm3.955-3.954c-.829-.829-2-.722-2.838.115-.829.829-.944 2.009-.115 2.838.82.82 2.008.713 2.837-.116.838-.837.936-2.017.116-2.837zm-9.58-1.67c-1.479-1.479-1.44-3.547-.015-4.972 1.433-1.433 3.493-1.464 4.972.016 1.471 1.47 1.449 3.538.015 4.972-1.424 1.424-3.501 1.455-4.972-.016zm3.955-3.955c-.828-.828-2-.722-2.837.116-.829.829-.944 2.009-.116 2.837.82.82 2.009.714 2.838-.115.837-.838.935-2.018.115-2.838zm-5.014-5.1c-.44-.44-.917-.52-1.193-.244-.709.708 2.549 2.912.735 4.725-.915.915-2.23.827-3.532-.475-.887-.888-1.295-1.917-1.295-2.729 0 0 1.362-.347 1.362-.347-.007.649.3 1.543.917 2.16.575.575 1.062.595 1.347.31.803-.803-2.506-2.938-.71-4.734.803-.803 2.203-.749 3.336.384.794.794 1.178 1.696 1.22 2.584 0 0-1.319.27-1.319.27-.027-.683-.412-1.448-.868-1.904z" fill="#fff"/></g></svg>

<svg xmlns="http://www.w3.org/2000/svg" xmlns:xlink="http://www.w3.org/1999/xlink" preserveAspectRatio="xMidYMid" width="49" height="49" viewBox="0 0 49 49">
  <defs>
    <style>

      .cls-3 {
        fill: #bfbfbf;
      }

      .cls-4 {
        fill: #ffffff;
      }
    </style>
  </defs>
  <g id="ribbonsvg">
    <path d="M24.000,0.000 C24.000,0.000 49.000,25.000 49.000,25.000 C49.000,25.000 49.000,49.000 49.000,49.000 C49.000,49.000 -0.000,0.000 -0.000,0.000 C-0.000,0.000 24.000,0.000 24.000,0.000 Z" id="path-1" class="cls-3" fill-rule="evenodd"/>
    <path d="M43.116,26.369 C43.116,26.369 38.367,31.118 38.367,31.118 C38.367,31.118 37.217,29.968 37.217,29.968 C37.217,29.968 38.032,24.842 38.032,24.842 C38.032,24.842 35.061,27.813 35.061,27.813 C35.061,27.813 33.945,26.697 33.945,26.697 C33.945,26.697 38.695,21.948 38.695,21.948 C38.695,21.948 39.895,23.148 39.895,23.148 C39.895,23.148 39.125,28.128 39.125,28.128 C39.125,28.128 42.000,25.253 42.000,25.253 C42.000,25.253 43.116,26.369 43.116,26.369 ZM30.449,23.407 C28.970,21.928 29.009,19.860 30.434,18.436 C31.867,17.002 33.926,16.972 35.405,18.451 C36.876,19.922 36.854,21.990 35.421,23.423 C33.996,24.848 31.920,24.878 30.449,23.407 ZM34.404,19.453 C33.575,18.624 32.404,18.731 31.566,19.568 C30.737,20.397 30.622,21.577 31.451,22.406 C32.271,23.226 33.459,23.119 34.288,22.290 C35.126,21.453 35.224,20.273 34.404,19.453 ZM24.824,17.783 C23.345,16.304 23.384,14.236 24.809,12.811 C26.242,11.378 28.302,11.347 29.781,12.827 C31.252,14.297 31.230,16.365 29.796,17.799 C28.372,19.223 26.295,19.254 24.824,17.783 ZM28.779,13.828 C27.951,13.000 26.779,13.106 25.942,13.944 C25.113,14.773 24.998,15.953 25.826,16.781 C26.646,17.601 27.835,17.495 28.664,16.666 C29.501,15.828 29.599,14.648 28.779,13.828 ZM23.765,8.728 C23.325,8.288 22.848,8.208 22.572,8.484 C21.863,9.192 25.121,11.396 23.307,13.209 C22.392,14.124 21.077,14.036 19.775,12.734 C18.888,11.846 18.480,10.817 18.480,10.005 C18.480,10.005 19.842,9.658 19.842,9.658 C19.835,10.307 20.142,11.201 20.759,11.818 C21.334,12.393 21.821,12.413 22.106,12.128 C22.909,11.325 19.600,9.190 21.396,7.394 C22.199,6.591 23.599,6.645 24.732,7.778 C25.526,8.572 25.910,9.474 25.952,10.362 C25.952,10.362 24.633,10.632 24.633,10.632 C24.606,9.949 24.221,9.184 23.765,8.728 Z" id="path-2" class="cls-4" fill-rule="evenodd"/>
  </g>
</svg>
